X: 040834
T: Dennis Langtou's
S: "Traditional Irish Music" (K.Tweed)
Z: B.Black
L: 1/8
M: 4/4
R: reel
K: D
DC|D2 A,D B,DA,B,|DFAF GFEF|DF F2 Agfe|dBBA BAFE|
D2 A,D B,DA,B,|DFAF GFEF|DFBF AF F2|EDCE D2 :|
(3gfe|fdAG FAdf|eA A2 eAeg|fedB BAFA|BdAF FEEg|
fdAG FAdf|eA A2 e3 f|gfec dedB|ABde fd :|
